X:4865
T:Orcadian Waltz
O:england
D:Jimmy Shand 78 (Parlophone R 4218)
N:From memory, so not 100% accurate
M:3/4
R:Waltz
L:1/4
K:D
A/G | F2 A | D2 d | c2 e | A2 G | F2 A | D2 F2 | E3- | E2 A/G |
F2 A | D2 d | c2 e | A2 G | F>G F ? to be finished


